src/pos-icons/checkbox-multiple-marked.svg

<svg height="24" viewBox="0 0 24 24" width="24" xmlns="http://www.w3.org/2000/svg"><path d="m22 16a2 2 0 0 1 -2 2h-12c-1.11 0-2-.9-2-2v-12c0-1.11.89-2 2-2h12a2 2 0 0 1 2 2zm-6 4v2h-12a2 2 0 0 1 -2-2v-13h2v13zm-3-6 7-7-1.41-1.41-5.59 5.58-3.09-3.08-1.41 1.41z"/></svg>

<?xml version="1.0" encoding="UTF-8"?><!DOCTYPE svg PUBLIC "-//W3C//DTD SVG 1.1//EN" "http://www.w3.org/Graphics/SVG/1.1/DTD/svg11.dtd"><svg xmlns="http://www.w3.org/2000/svg" xmlns:xlink="http://www.w3.org/1999/xlink" version="1.1" id="mdi-checkbox-multiple-marked" width="24" height="24" viewBox="0 0 24 24"><path d="M22,16A2,2 0 0,1 20,18H8C6.89,18 6,17.1 6,16V4C6,2.89 6.89,2 8,2H20A2,2 0 0,1 22,4V16M16,20V22H4A2,2 0 0,1 2,20V7H4V20H16M13,14L20,7L18.59,5.59L13,11.17L9.91,8.09L8.5,9.5L13,14Z" /></svg>
